X:60
T:Ketten mentünk, hárman jöttünk, tedd rá...
K: F
M: 2/4
L: 1/4
G g | g/a/g | f f/g/ | 
a a/g/ | d/e/ f | d d | 
g/c/ c | c/d/ c | B B/c/ | 
d d/c/ | G/A/ B | G G |  

